public/img/help.svg

<svg fill="none" height="24" viewBox="0 0 24 24" width="24" xmlns="http://www.w3.org/2000/svg"><path d="m11.0625 12.8438c.7969-1.4063 2.25-2.2032 3.1406-3.42192.8907-1.3125.375-3.70313-2.2031-3.70313-1.6875 0-2.53125 1.26563-2.85938 2.34375l-2.57812-1.125c.70312-2.10938 2.625-3.9375 5.4375-3.9375 2.3438 0 3.9375 1.07812 4.7812 2.39062.7032 1.17188 1.0782 3.32813 0 4.92188-1.1718 1.7813-2.3437 2.2969-2.9531 3.4687-.2343.4219-.3281.75-.3281 2.2032h-2.9062c0-.75-.1407-2.0156.4687-3.1406zm2.9531 7.1718c0 1.0782-.9375 1.9688-2.0156 1.9688s-2.01562-.8906-2.01562-1.9688c0-1.125.93752-2.0156 2.01562-2.0156s2.0156.8906 2.0156 2.0156z" fill="#3367d6"/></svg>

<svg width="24" height="24" viewBox="0 0 24 24" fill="none" xmlns="http://www.w3.org/2000/svg">
<path d="M11.0625 12.8438C11.8594 11.4375 13.3125 10.6406 14.2031 9.42188C15.0938 8.10938 14.5781 5.71875 12 5.71875C10.3125 5.71875 9.46875 6.98438 9.14062 8.0625L6.5625 6.9375C7.26562 4.82812 9.1875 3 12 3C14.3438 3 15.9375 4.07812 16.7812 5.39062C17.4844 6.5625 17.8594 8.71875 16.7812 10.3125C15.6094 12.0938 14.4375 12.6094 13.8281 13.7812C13.5938 14.2031 13.5 14.5312 13.5 15.9844H10.5938C10.5938 15.2344 10.4531 13.9688 11.0625 12.8438ZM14.0156 20.0156C14.0156 21.0938 13.0781 21.9844 12 21.9844C10.9219 21.9844 9.98438 21.0938 9.98438 20.0156C9.98438 18.8906 10.9219 18 12 18C13.0781 18 14.0156 18.8906 14.0156 20.0156Z" fill="#3367D6"/>
</svg>
